!!!OTL: Zhouxiling zhandao
!!!ARE: Asia, China, Shanxi Qinyuan
!! I, 304, 2)
!!!SCT: C2108
!!!YEM: Copyright 1995, estate of Helmut Schaffrath.
**kern
*ICvox
*Ivox
*M4/4
*k[]
*C:
{4g
4g
8b
8cc
8dd
8gg
=1
8gg
8ee
8dd
8cc
8.dd
16gg
8dd
8a}
=2
{8cc
8g
8g
8e
8.g
16a
8cc
8cc
=3
8.cc
16g
8e
8d
2c}
=4
{8g
8g
8g
8c
8d
4g
8cc
=5
8g
8e
8d
8c
8d
8e
4d}
=6
{8g
4g
8a
8cc
8b
8a
8cc
=7
8dd
8gg
8dd
8a
2g}
==
!!!AGN: Wuge, Yangge, Pingdiao
!! Han
!!!ONB: ESAC (Essen Associative Code) Database: SENGANSU
!!!AMT: simple quadruple
!!!AIN: vox
!!!EED: Helmut Schaffrath
!!!EEV: 1.0
*-
